status/24/audio-volume-medium-symbolic.svg

<?xml version="1.0" encoding="UTF-8" standalone="no"?>
<svg
   height="24"
   width="24"
   version="1.1"
   id="svg6"
   xmlns="http://www.w3.org/2000/svg"
   xmlns:svg="http://www.w3.org/2000/svg">
  <defs
     id="defs10" />
  <path
     id="path3916-2"
     style="font-variation-settings:normal;opacity:1;vector-effect:none;fill:#555761;fill-opacity:1;stroke:none;stroke-width:4;stroke-linecap:round;stroke-linejoin:round;stroke-miterlimit:4;stroke-dasharray:none;stroke-dashoffset:0;stroke-opacity:1;-inkscape-stroke:none;stop-color:#000000;stop-opacity:1"
     d="M 11,6 C 10.738549,6 10.502035,6.1005313 10.324219,6.2636719 L 7,9 H 5 C 4.446,9 4,9.446 4,10 v 4 c 0,0.554 0.446,1 1,1 h 2 l 3.345703,2.753906 c 0.0063,0.0055 0.01115,0.01228 0.01758,0.01758 l 0.02344,0.01758 C 10.555952,17.920485 10.76818,18 11,18 c 0.554,0 1,-0.446 1,-1 V 7 C 12,6.446 11.554,6 11,6 Z m 7.498047,0.5 c -0.414214,0 -0.75,0.3357864 -0.75,0.75 -1.18e-4,0.1188218 0.028,0.2359712 0.08203,0.3417969 C 18.588509,8.9372688 18.987404,10.45549 18.988281,12 c -8.77e-4,1.54451 -0.399772,3.062731 -1.158203,4.408203 -0.05403,0.105826 -0.08215,0.222975 -0.08203,0.341797 0,0.414214 0.335786,0.75 0.75,0.75 0.259823,-8.08e-4 0.500719,-0.136034 0.636719,-0.357422 l 0.0039,0.002 C 20.022442,15.573959 20.486583,13.80215 20.486328,12 20.486583,10.19785 20.022442,8.4260404 19.138672,6.8554688 l -0.0039,0.00195 C 18.998766,6.6360343 18.75787,6.5008076 18.498047,6.5 Z M 15.332031,8 c -0.414214,0 -0.75,0.3357864 -0.75,0.75 7.96e-4,0.1183202 0.02957,0.2347734 0.08399,0.3398438 l -0.0039,0.00195 C 15.206708,9.964083 15.495653,10.971666 15.496094,12 c -4.41e-4,1.028334 -0.289386,2.035917 -0.833985,2.908203 l 0.0039,0.002 c -0.05441,0.10507 -0.08319,0.221524 -0.08399,0.339844 0,0.414214 0.335786,0.75 0.75,0.75 0.236412,7.69e-4 0.459347,-0.109974 0.601563,-0.298828 l 0.0059,0.0039 C 16.632676,14.593611 17.000119,13.30993 17,12 17.000119,10.69007 16.632676,9.4063888 15.939453,8.2949219 l -0.0059,0.00391 C 15.791378,8.1099745 15.568443,7.9992306 15.332031,8 Z" />
  <g
     transform="translate(-593 295)"
     id="g4" />
</svg>

<svg
        xmlns='http://www.w3.org/2000/svg'
        xmlns:svg='http://www.w3.org/2000/svg'
        id='svg6'
        width='24'
        height='24'>
  <path
          id='path3916-2'
          opacity='1'
          fill='url(#gpa:foreground) #555761'
          fill-opacity='1'
          fill-rule='nonzero'
          stroke='none'
          stroke-opacity='1'
          stroke-width='4'
          stroke-linecap='round'
          stroke-linejoin='round'
          stroke-miterlimit='4'
          stroke-dasharray='none'
          stroke-dashoffset='0'
          d='M 11 6 C 10.7385 6, 10.502 6.10053, 10.3242 6.26367 L 7 9 L 5 9 C 4.446 9, 4 9.446, 4 10 L 4 14 C 4 14.554, 4.446 15, 5 15 L 7 15 L 10.3457 17.7539 C 10.352 17.7594, 10.3569 17.7662, 10.3633 17.7715 L 10.3867 17.7891 C 10.556 17.9205, 10.7682 18, 11 18 C 11.554 18, 12 17.554, 12 17 L 12 7 C 12 6.446, 11.554 6, 11 6 Z M 18.498 6.5 C 18.0838 6.5, 17.748 6.83579, 17.748 7.25 C 17.7479 7.36882, 17.776 7.48597, 17.8301 7.5918 C 18.5885 8.93727, 18.9874 10.4555, 18.9883 12 C 18.9874 13.5445, 18.5885 15.0627, 17.8301 16.4082 C 17.776 16.514, 17.7479 16.6312, 17.748 16.75 C 17.748 17.1642, 18.0838 17.5, 18.498 17.5 C 18.7579 17.4992, 18.9988 17.364, 19.1348 17.1426 L 19.1387 17.1446 C 20.0224 15.574, 20.4866 13.8021, 20.4863 12 C 20.4866 10.1979, 20.0224 8.42604, 19.1387 6.85547 L 19.1348 6.85742 C 18.9988 6.63603, 18.7579 6.50081, 18.498 6.5 Z M 15.332 8 C 14.9178 8, 14.582 8.33579, 14.582 8.75 C 14.5828 8.86832, 14.6116 8.98477, 14.666 9.08984 L 14.6621 9.09179 C 15.2067 9.96408, 15.4957 10.9717, 15.4961 12 C 15.4957 13.0283, 15.2067 14.0359, 14.6621 14.9082 L 14.666 14.9102 C 14.6116 15.0153, 14.5828 15.1317, 14.582 15.25 C 14.582 15.6643, 14.9178 16, 15.332 16 C 15.5684 16.0008, 15.7914 15.8901, 15.9336 15.7012 L 15.9395 15.7051 C 16.6327 14.5936, 17.0001 13.3099, 17 12 C 17.0001 10.6901, 16.6327 9.40639, 15.9395 8.29492 L 15.9336 8.29883 C 15.7914 8.10997, 15.5684 7.99923, 15.332 8 Z'
          class="foreground">
  </path>
</svg>
